X: 184
T: I Look for Them
C: Teton Sioux band 1911-1914
N: Derived from sioux179.krn
O: South Dakota, U.S.A.
N: Teton Sioux Music by Frances Densmore, 1918
Z: transcribed to **kern format by Craig Sapp
L: 1/8
M: 2/4
Q: 1/4=58
K: Ab clef=bass
%%linebreak <none>
F [I:setbarnb 1]| 
F2F2- | 
F2F F/ F/ | 
F< CC2 | 
F2F/ C3/- | 
C CB,2 | 
C< B, A, F,3// F,// | 
F,> F,F,2 ||  
[M:3/4]C< CB,4 ||  
[M:2/4]B, B, A, F, | 
(3A, A, A, F,3/ F,/ | 
F,3F, ||  
[M:3/4]F,6 ||  
[M:2/4]F< F F/ C3/ | 
C C C/ B,3/ | 
C< B, A, F,3// F,// | 
F,> F, F,3/ F,/ ||  
[M:3/4]C> FC2B,/> B,/ B, ||  
[M:2/4]B,2A, F, ||  
[M:3/4]A, B, A, F, F, F, | 
F,4F,2 |]  



